src/assets/selectIcons/materiale_6.svg

<svg xmlns="http://www.w3.org/2000/svg" viewBox="0 0 512 512" style="height: 512px; width: 512px;"><path d="M0 0h512v512H0z" fill="#000" fill-opacity="1"></path><g class="" transform="translate(0,0)" style=""><path d="M353.86 48.45c-10.626-.16-20.45 3.456-29.14 13.253l-.193.217-50.586 50.098.628.703c3.395 3.7 3.106 9.463-.642 12.804-3.748 3.342-9.505 2.97-12.793-.825l-5.985-6.712c-.784 1.096-1.627 2.16-2.544 3.178-5.116 5.68-11.746 9.448-18.688 11.023l5.438 20.302c2.54 8.98-8.582 15.417-15.102 8.738l-41.2 40.803c1.41-.082 2.83-.135 4.26-.135 40.63 0 73.616 33.616 73.616 74.672 0 .803-.036 1.598-.06 2.395l141.94-153.74c8.252-10.316 9.687-20.888 6.985-31.832C407.08 82.4 399.6 71.29 389.653 62.967c-3.085-2.583-6.396-4.885-9.835-6.854L258.56 182.725c-3.418 3.685-9.193 3.856-12.824.38-3.63-3.478-3.71-9.255-.175-12.83l115.932-121.05c-1.843-.34-3.68-.584-5.494-.694-.715-.042-1.428-.07-2.137-.08zM232.31 85.597c-4.224-.048-8.876 1.842-12.583 5.96-6.327 7.024-5.918 16.11-.913 20.62 5.006 4.508 14.088 3.968 20.415-3.057 6.325-7.024 5.917-16.112.91-20.62-1.877-1.69-4.328-2.672-6.992-2.867-.277-.02-.556-.032-.837-.035zm-27.95 63.94c-7.19-.12-13.63 2.222-19.577 8.925l-.19.217-99.734 98.77c10.89.53 20.967 4.222 29.386 10.167 1.406-11.834 5.547-22.84 11.785-32.332l.44-.67 6.39-8.21c1.915-2.138 3.963-4.148 6.11-6.05l70.907-70.224c-1.372-.268-2.734-.453-4.07-.534-.486-.03-.968-.05-1.448-.057zm193.3 14.415c-2.226.018-4.423.188-6.588.52L245.744 321.88c-2.968 3.93-6.313 7.544-9.976 10.806l-5.715 6.19c9.9 2.162 19.137 6.16 27.34 11.628-.004-.254-.02-.505-.02-.76 0-12.38 4.545-23.756 12.03-32.496l-.087-.086 1.358-1.344c1.008-1.09 2.06-2.135 3.16-3.13L381.01 206.545c8.52-9.363 20.055-13.314 30.816-12.662 10.908.66 21.093 5.423 29.33 12.316 8.238 6.892 14.684 16.035 17.278 26.538.788 3.194 1.158 6.54 1.078 9.922 4.62-9.422 4.9-19.095 2.242-28.918-3.484-12.87-12.614-25.674-24.47-34.967v.002c-11.194-8.77-24.658-14.314-37.27-14.79-.79-.028-1.573-.04-2.354-.034zm11.926 47.852c-5.712-.106-10.696 1.69-15.463 7.064l-.193.216-82.07 81.28c22.277 2.517 40.072 20.28 43.12 42.585l82.31-89.153c4.454-5.58 5.124-10.833 3.665-16.742-1.468-5.945-5.675-12.3-11.35-17.05-5.678-4.75-12.668-7.778-18.867-8.153-.387-.024-.77-.04-1.152-.047zm-222.274 8.097c-4.898 0-9.644.647-14.167 1.85 1.964-.262 3.962-.41 5.994-.41 24.715 0 45.067 19.99 45.067 44.566 0 24.576-20.355 44.567-45.068 44.567-24.718 0-45.07-19.992-45.07-44.567 0-2.83.282-5.593.797-8.277-2.044 5.915-3.166 12.284-3.166 18.94 0 31.482 24.873 56.668 55.613 56.668s55.61-25.185 55.61-56.668c0-31.482-24.87-56.668-55.61-56.668zm-8.173 19.44c-15.12 0-27.07 11.857-27.07 26.566 0 14.71 11.945 26.567 27.07 26.567 15.117 0 27.067-11.858 27.067-26.567 0-14.71-11.944-26.566-27.068-26.566zm-3.388 7.357c8.742 0 16.023 7.276 16.023 16.02s-7.285 16.02-16.023 16.02c-8.742 0-16.025-7.275-16.025-16.02 0-8.743 7.287-16.02 16.025-16.02zm-93.61 28.68c-21.25 0-38.427 17.364-38.427 39.2 0 21.835 17.177 39.2 38.426 39.2 21.25 0 38.426-17.364 38.426-39.2 0-3.01-.338-5.933-.957-8.74-1.208-2.858-2.23-5.813-3.08-8.838-6.297-12.877-19.314-21.623-34.39-21.623zm-.36 11.016c15.59 0 27.085 14.1 27.085 29.823 0 15.724-11.498 29.82-27.086 29.82-15.59 0-27.087-14.098-27.087-29.82 0-15.727 11.5-29.824 27.088-29.824zm372.58.325c-6.907-.118-13.068 2.118-18.79 8.567l-.193.22-96.345 95.415c27.285 1.628 49.25 23.576 51.547 50.926l96.64-104.672c5.384-6.735 6.24-13.283 4.48-20.42-.234-.944-.527-1.893-.868-2.844l-63.383 66.342c-3.41 3.703-9.196 3.888-12.837.41-3.64-3.48-3.72-9.267-.175-12.844l65.103-68.144c.345-.37.72-.71 1.122-1.018-.786-.76-1.604-1.497-2.447-2.203-6.715-5.62-14.988-9.227-22.463-9.68-.467-.028-.93-.046-1.39-.054zm-372.9 14.73c-7.59 0-13.74 7.046-13.74 15.738 0 8.69 6.15 15.736 13.74 15.736s13.743-7.045 13.743-15.736c0-8.69-6.152-15.737-13.742-15.737zm224.952 16.6c-17.17 0-31.04 14.004-31.04 31.694 0 17.69 13.87 31.695 31.04 31.695s31.04-14.006 31.04-31.696-13.87-31.693-31.04-31.693zm-2.285 11.155c11.398 0 19.28 10.28 19.28 21.092 0 10.814-7.884 21.09-19.28 21.09-11.4 0-19.282-10.277-19.282-21.09 0-10.814 7.883-21.092 19.28-21.092zm-163.378 5.13l-14.027 15.192c-2.17 2.835-4.59 5.46-7.235 7.838l-3.986 4.317c9.624 5.793 17.842 13.746 24.006 23.185 6.715-14.72 17.602-27.106 31.113-35.588-11.134-2.634-21.307-7.826-29.87-14.946zm72.31 20.704c-34.83 0-63.015 28.553-63.015 64.192 0 35.64 28.186 64.194 63.016 64.194s63.017-28.554 63.017-64.194c0-35.638-28.188-64.193-63.017-64.193zM68.68 370.114C42.442 374.65 22.5 397.775 22.5 425.96c0 14.03 4.95 26.802 13.146 36.66-5.09-7.662-8.066-16.868-8.064-26.725v-.004c-.005-26.31 21.188-47.994 47.29-47.994 26.105 0 47.298 21.684 47.292 47.996.005 20.913-13.386 38.89-31.986 45.393 22.622-5.065 40.05-24.075 43.076-47.908-.792-4.6-1.207-9.324-1.207-14.145 0-2.07.077-4.125.226-6.16-4.7-20.763-20.513-37.028-40.71-42.11-3.065.528-6.21.817-9.422.817-4.64 0-9.146-.586-13.462-1.665zm140.48.643c27.187 0 49.2 22.702 49.2 50.203 0 27.503-22.016 50.204-49.2 50.204-27.187 0-49.2-22.702-49.2-50.203 0-27.5 22.017-50.202 49.2-50.202zm0 17.998c-17.21 0-31.2 14.195-31.2 32.205 0 18.012 13.983 32.206 31.2 32.206 17.212 0 31.2-14.195 31.2-32.205 0-18.01-13.982-32.204-31.2-32.204zm81.856 8.148c1.256 4.498 2.16 9.143 2.642 13.912 3.67-4.432 8.01-8.273 12.852-11.38-.032.002-.062.003-.094.003-5.38 0-10.554-.9-15.4-2.536zm-216.14 8.992c-16.2 0-29.295 13.238-29.29 29.995v.005c-.005 16.756 13.09 29.994 29.29 29.994 16.197 0 29.295-13.24 29.29-29.995v-.004c.005-16.756-13.093-29.994-29.29-29.994zm133.706.256c8.967 0 14.96 7.945 14.96 15.953 0 8.01-5.993 15.952-14.96 15.952-8.966 0-14.96-7.943-14.96-15.952 0-8.008 5.994-15.953 14.96-15.953zm127.203 2.664c-20.47 0-37.013 16.723-37.013 37.766 0 21.042 16.544 37.766 37.013 37.766 20.47 0 37.012-16.723 37.012-37.766 0-21.042-16.543-37.766-37.012-37.766zM71.833 422.39c8.965 0 14.958 7.943 14.958 15.952 0 8.01-5.992 15.953-14.958 15.953-8.966 0-14.96-7.944-14.96-15.953 0-8.01 5.994-15.953 14.96-15.953zm267.923 1.423c14.727 0 26.683 12.307 26.683 27.037 0 14.73-11.958 27.037-26.684 27.037-14.728 0-26.682-12.308-26.682-27.037 0-14.73 11.955-27.038 26.682-27.038zm0 18c-4.802 0-8.682 3.845-8.682 9.037s3.877 9.037 8.682 9.037c4.8 0 8.683-3.846 8.683-9.037 0-5.193-3.88-9.038-8.684-9.038z" fill="#fff" fill-opacity="1"></path></g></svg>

<?xml version="1.0" encoding="UTF-8" standalone="no"?>
<!DOCTYPE svg PUBLIC "-//W3C//DTD SVG 1.1//EN" "http://www.w3.org/Graphics/SVG/1.1/DTD/svg11.dtd">
<svg width="100%" height="100%" viewBox="0 0 512 512" version="1.1" xmlns="http://www.w3.org/2000/svg" xmlns:xlink="http://www.w3.org/1999/xlink" xml:space="preserve" xmlns:serif="http://www.serif.com/" style="fill-rule:evenodd;clip-rule:evenodd;stroke-linejoin:round;stroke-miterlimit:2;">
    <rect x="0" y="0" width="512" height="512" style="fill-rule:nonzero;"/>
    <g>
        <path d="M353.86,48.45C343.234,48.29 333.41,51.906 324.72,61.703L324.527,61.92L273.941,112.018L274.569,112.721C277.964,116.421 277.675,122.184 273.927,125.525C270.179,128.867 264.422,128.495 261.134,124.7L255.149,117.988C254.365,119.084 253.522,120.148 252.605,121.166C247.489,126.846 240.859,130.614 233.917,132.189L239.355,152.491C241.895,161.471 230.773,167.908 224.253,161.229L183.053,202.032C184.463,201.95 185.883,201.897 187.313,201.897C227.943,201.897 260.929,235.513 260.929,276.569C260.929,277.372 260.893,278.167 260.869,278.964L402.809,125.224C411.061,114.908 412.496,104.336 409.794,93.392C407.08,82.4 399.6,71.29 389.653,62.967C386.568,60.384 383.257,58.082 379.818,56.113L258.56,182.725C255.142,186.41 249.367,186.581 245.736,183.105C242.106,179.627 242.026,173.85 245.561,170.275L361.493,49.225C359.65,48.885 357.813,48.641 355.999,48.531C355.284,48.489 354.571,48.461 353.862,48.451L353.86,48.45ZM232.31,85.597C228.086,85.549 223.434,87.439 219.727,91.557C213.4,98.581 213.809,107.667 218.814,112.177C223.82,116.685 232.902,116.145 239.229,109.12C245.554,102.096 245.146,93.008 240.139,88.5C238.262,86.81 235.811,85.828 233.147,85.633C232.87,85.613 232.591,85.601 232.31,85.598L232.31,85.597ZM204.36,149.537C197.17,149.417 190.73,151.759 184.783,158.462L184.593,158.679L84.859,257.449C95.749,257.979 105.826,261.671 114.245,267.616C115.651,255.782 119.792,244.776 126.03,235.284L126.47,234.614L132.86,226.404C134.775,224.266 136.823,222.256 138.97,220.354L209.877,150.13C208.505,149.862 207.143,149.677 205.807,149.596C205.321,149.566 204.839,149.546 204.359,149.539L204.36,149.537ZM397.66,163.952C395.434,163.97 393.237,164.14 391.072,164.472L245.744,321.88C242.776,325.81 239.431,329.424 235.768,332.686L230.053,338.876C239.953,341.038 249.19,345.036 257.393,350.504C257.389,350.25 257.373,349.999 257.373,349.744C257.373,337.364 261.918,325.988 269.403,317.248L269.316,317.162L270.674,315.818C271.682,314.728 272.734,313.683 273.834,312.688L381.01,206.545C389.53,197.182 401.065,193.231 411.826,193.883C422.734,194.543 432.919,199.306 441.156,206.199C449.394,213.091 455.84,222.234 458.434,232.737C459.222,235.931 459.592,239.277 459.512,242.659C464.132,233.237 464.412,223.564 461.754,213.741C458.27,200.871 449.14,188.067 437.284,178.774L437.284,178.776C426.09,170.006 412.626,164.462 400.014,163.986C399.224,163.958 398.441,163.946 397.66,163.952ZM409.586,211.804C403.874,211.698 398.89,213.494 394.123,218.868L393.93,219.084L311.86,300.364C334.137,302.881 351.932,320.644 354.98,342.949L437.29,253.796C441.744,248.216 442.414,242.963 440.955,237.054C439.487,231.109 435.28,224.754 429.605,220.004C423.927,215.254 416.937,212.226 410.738,211.851C410.351,211.827 409.968,211.811 409.586,211.804ZM187.312,219.901C182.414,219.901 177.668,220.548 173.145,221.751C175.109,221.489 177.107,221.341 179.139,221.341C203.854,221.341 224.206,241.331 224.206,265.907C224.206,290.483 203.851,310.474 179.138,310.474C154.42,310.474 134.068,290.482 134.068,265.907C134.068,263.077 134.35,260.314 134.865,257.63C132.821,263.545 131.699,269.914 131.699,276.57C131.699,308.052 156.572,333.238 187.312,333.238C218.052,333.238 242.922,308.053 242.922,276.57C242.922,245.088 218.052,219.902 187.312,219.902L187.312,219.901ZM179.139,239.341C164.019,239.341 152.069,251.198 152.069,265.907C152.069,280.617 164.014,292.474 179.139,292.474C194.256,292.474 206.206,280.616 206.206,265.907C206.206,251.197 194.262,239.341 179.138,239.341L179.139,239.341ZM175.751,246.698C184.493,246.698 191.774,253.974 191.774,262.718C191.774,271.462 184.489,278.738 175.751,278.738C167.009,278.738 159.726,271.463 159.726,262.718C159.726,253.975 167.013,246.698 175.751,246.698ZM82.141,275.378C60.891,275.378 43.714,292.742 43.714,314.578C43.714,336.413 60.891,353.778 82.14,353.778C103.39,353.778 120.566,336.414 120.566,314.578C120.566,311.568 120.228,308.645 119.609,305.838C118.401,302.98 117.379,300.025 116.529,297C110.232,284.123 97.215,275.377 82.139,275.377L82.141,275.378ZM81.781,286.394C97.371,286.394 108.866,300.494 108.866,316.217C108.866,331.941 97.368,346.037 81.78,346.037C66.19,346.037 54.693,331.939 54.693,316.217C54.693,300.49 66.193,286.393 81.781,286.393L81.781,286.394ZM454.361,286.719C447.454,286.601 441.293,288.837 435.571,295.286L435.378,295.506L339.033,390.921C366.318,392.549 388.283,414.497 390.58,441.847L487.22,337.175C492.604,330.44 493.46,323.892 491.7,316.755C491.466,315.811 491.173,314.862 490.832,313.911L427.449,380.253C424.039,383.956 418.253,384.141 414.612,380.663C410.972,377.183 410.892,371.396 414.437,367.819L479.54,299.675C479.885,299.305 480.26,298.965 480.662,298.657C479.876,297.897 479.058,297.16 478.215,296.454C471.5,290.834 463.227,287.227 455.752,286.774C455.285,286.746 454.822,286.728 454.362,286.72L454.361,286.719ZM81.461,301.449C73.871,301.449 67.721,308.495 67.721,317.187C67.721,325.877 73.871,332.923 81.461,332.923C89.051,332.923 95.204,325.878 95.204,317.187C95.204,308.497 89.052,301.45 81.462,301.45L81.461,301.449ZM306.413,318.049C289.243,318.049 275.373,332.053 275.373,349.743C275.373,367.433 289.243,381.438 306.413,381.438C323.583,381.438 337.453,367.432 337.453,349.742C337.453,332.052 323.583,318.049 306.413,318.049ZM304.128,329.204C315.526,329.204 323.408,339.484 323.408,350.296C323.408,361.11 315.524,371.386 304.128,371.386C292.728,371.386 284.846,361.109 284.846,350.296C284.846,339.482 292.729,329.204 304.126,329.204L304.128,329.204ZM140.75,334.334L126.723,349.526C124.553,352.361 122.133,354.986 119.488,357.364L115.502,361.681C125.126,367.474 133.344,375.427 139.508,384.866C146.223,370.146 157.11,357.76 170.621,349.278C159.487,346.644 149.314,341.452 140.751,334.332L140.75,334.334ZM213.06,355.038C178.23,355.038 150.045,383.591 150.045,419.23C150.045,454.87 178.231,483.424 213.061,483.424C247.891,483.424 276.078,454.87 276.078,419.23C276.078,383.592 247.89,355.037 213.061,355.037L213.06,355.038ZM68.68,370.114C42.442,374.65 22.5,397.775 22.5,425.96C22.5,439.99 27.45,452.762 35.646,462.62C30.556,454.958 27.58,445.752 27.582,435.895L27.582,435.891C27.577,409.581 48.77,387.897 74.872,387.897C100.977,387.897 122.17,409.581 122.164,435.893C122.169,456.806 108.778,474.783 90.178,481.286C112.8,476.221 130.228,457.211 133.254,433.378C132.462,428.778 132.047,424.054 132.047,419.233C132.047,417.163 132.124,415.108 132.273,413.073C127.573,392.31 111.76,376.045 91.563,370.963C88.498,371.491 85.353,371.78 82.141,371.78C77.501,371.78 72.995,371.194 68.679,370.115L68.68,370.114ZM209.16,370.757C236.347,370.757 258.36,393.459 258.36,420.96C258.36,448.463 236.344,471.164 209.16,471.164C181.973,471.164 159.96,448.462 159.96,420.961C159.96,393.461 181.977,370.759 209.16,370.759L209.16,370.757ZM209.16,388.755C191.95,388.755 177.96,402.95 177.96,420.96C177.96,438.972 191.943,453.166 209.16,453.166C226.372,453.166 240.36,438.971 240.36,420.961C240.36,402.951 226.378,388.757 209.16,388.757L209.16,388.755ZM291.016,396.903C292.272,401.401 293.176,406.046 293.658,410.815C297.328,406.383 301.668,402.542 306.51,399.435C306.478,399.437 306.448,399.438 306.416,399.438C301.036,399.438 295.862,398.538 291.016,396.902L291.016,396.903ZM74.876,405.895C58.676,405.895 45.581,419.133 45.586,435.89L45.586,435.895C45.581,452.651 58.676,465.889 74.876,465.889C91.073,465.889 104.171,452.649 104.166,435.894L104.166,435.89C104.171,419.134 91.073,405.896 74.876,405.896L74.876,405.895ZM208.582,406.151C217.549,406.151 223.542,414.096 223.542,422.104C223.542,430.114 217.549,438.056 208.582,438.056C199.616,438.056 193.622,430.113 193.622,422.104C193.622,414.096 199.616,406.151 208.582,406.151ZM335.785,408.815C315.315,408.815 298.772,425.538 298.772,446.581C298.772,467.623 315.316,484.347 335.785,484.347C356.255,484.347 372.797,467.624 372.797,446.581C372.797,425.539 356.254,408.815 335.785,408.815ZM71.833,422.39C80.798,422.39 86.791,430.333 86.791,438.342C86.791,446.352 80.799,454.295 71.833,454.295C62.867,454.295 56.873,446.351 56.873,438.342C56.873,430.332 62.867,422.389 71.833,422.389L71.833,422.39ZM339.756,423.813C354.483,423.813 366.439,436.12 366.439,450.85C366.439,465.58 354.481,477.887 339.755,477.887C325.027,477.887 313.073,465.579 313.073,450.85C313.073,436.12 325.028,423.812 339.755,423.812L339.756,423.813ZM339.756,441.813C334.954,441.813 331.074,445.658 331.074,450.85C331.074,456.042 334.951,459.887 339.756,459.887C344.556,459.887 348.439,456.041 348.439,450.85C348.439,445.657 344.559,441.812 339.755,441.812L339.756,441.813Z" style="fill:rgb(159,141,94);fill-rule:nonzero;"/>
    </g>
</svg>
